X:1
T:Moab, 11.11.12.11
T:John Roberts, 1870
T:Moab, 11.11.12.11
T:Public Domain
C:John Roberts, 1870
Z:Public Domain
%%score ( 1 2 ) ( 3 4 )
L:1/8
M:4/4
K:G
V:1 treble 
V:2 treble 
V:3 bass 
V:4 bass 
V:1
 [B,E]2 | [B,E]2 [EG]2 [DF]2 [CE]2 | [B,D]6 [CE]2 | [EG]2 [EG]2 [EF]4 | [^DF]6 [EG]2 | %5
 [EG]2 E2 [^DF]2 [EG]2 | [EA]6 [^DF]2 | [EG]2 [FB]2 (G2 FE) | [FB]6 [Gd]2 | %9
 [GB]2 [Gc]2 [FA]2 [DF]2 | [DG]6 [DA]2 | [GB]2 [Fd]2 [Fd]2 [E^c]2 | [DB]6 [^DB]2 | %13
 [Ee]2 [Ge]2 [Dd]2 [DB]2 | [Fd]6 [EB]2 | [B,G]2 [EA]2 (E2 ^D2) | E6 |] %17
V:2
 x2 | x8 | x8 | x8 | x8 | x2 E2 x4 | x8 | x4 A4 | x8 | x8 | x8 | x8 | x8 | x8 | x8 | x4 F4 | E6 |] %17
V:3
 [E,G,]2 | [E,G,]2 [E,B,]2 [B,,A,]2 [C,G,]2 | [G,,G,]6 [C,G,]2 | [B,,B,]2 [B,,B,]2 (B,,2 ^A,,2) | %4
 [B,,B,]6 [E,B,]2 | [E,B,]2 [G,B,]2 [F,A,]2 [E,B,]2 | [A,,C]6 [B,,B,]2 | [E,B,]2 [D,B,]2 [C,E]4 | %8
 [B,,^D]6 [G,B,]2 | [G,D]2 [C,E]2 [D,D]2 [D,A,]2 | [G,B,]6 [F,D]2 | [G,D]2 B,2 [F,B,]2 [F,^A,]2 | %12
 B,6 [A,B,]2 | [G,B,]2 [E,B,]2 [F,A,]2 [G,B,]2 | [D,A,]6 [E,G,]2 | E,2 [A,,C]2 (B,2 A,2) | %16
 [E,G,]6 |] %17
V:4
 x2 | x8 | x8 | x4 C4 | x8 | x8 | x8 | x8 | x8 | x8 | x8 | x2 B,2 x4 | B,6 x2 | x8 | x8 | %15
 E,2 B,,4 x2 | x6 |] %17

